img/sm/qq-group-steam.svg

<?xml version="1.0" encoding="UTF-8"?>
<svg width="197px" height="197px" viewBox="0 0 197 197" version="1.1" xmlns="http://www.w3.org/2000/svg" xmlns:xlink="http://www.w3.org/1999/xlink">
    <!-- Generator: Sketch 55 (78076) - https://sketchapp.com -->
    <title>tree-round-QQ群</title>
    <desc>Created with Sketch.</desc>
    <g id="页面1" stroke="none" stroke-width="1" fill="none" fill-rule="evenodd">
        <g id="tree-round-QQ群" fill="#DCDCDC" fill-rule="nonzero">
            <path d="M108.15624,55.924885 C100.499818,55.908024 93.4159968,59.9770964 89.5731837,66.599322 C85.7303706,73.2215476 85.7123802,81.3908527 89.5259893,88.0299393 C93.3395985,94.6690258 100.405429,98.7692584 108.061851,98.7861192 L108.15624,98.7861192 C119.991252,98.7850007 129.584832,89.1905142 129.584832,77.3555021 C129.584832,65.52049 119.991252,55.9260035 108.15624,55.924885 L108.15624,55.924885 Z" id="路径"></path>
            <path d="M98.4364024,0.130208334 C44.0707264,0.130208334 0,44.2009347 0,98.5666107 C0,152.932287 44.0707264,197.003013 98.4364024,197.003013 C152.802078,197.003013 196.872805,152.932287 196.872805,98.5666107 C196.872805,44.2009345 152.802079,0.130208334 98.4364024,0.130208334 Z M51.6437705,127.884169 C51.5884931,130.443163 49.4981957,132.488795 46.9386053,132.488795 C44.3790148,132.488795 42.2887174,130.443163 42.23344,127.884169 C42.2285431,115.632155 49.0268909,104.390652 59.8797302,98.7049012 C52.401048,92.3021307 49.7003887,81.9195823 53.1113609,72.6842465 C56.5223331,63.4489107 65.3233915,57.3143984 75.1684988,57.3099837 C77.7274923,57.3652611 79.7731244,59.4555584 79.7731244,62.0151489 C79.7731244,64.5747394 77.7274923,66.6650367 75.1684988,66.7203141 C67.3721199,66.7203144 61.051906,73.0405284 61.051906,80.8369073 C61.051906,88.6332863 67.3721199,94.9535003 75.1684988,94.9535005 C76.4178186,94.9529173 77.616105,95.4490997 78.4993017,96.3327081 C79.3824984,97.2163166 79.8781222,98.4148341 79.8769567,99.6641535 C79.8733233,102.261991 77.7663388,104.366029 75.1684988,104.366026 C62.1761501,104.366026 51.6437705,114.898406 51.6437705,127.890755 L51.6437705,127.884169 Z M150.701382,149.163326 C149.635833,149.182106 148.606629,148.776001 147.841003,148.034675 C147.075378,147.293349 146.636302,146.277772 146.620718,145.212172 C146.602541,123.984527 129.383891,106.788477 108.15624,106.79818 L108.059656,106.79818 C86.8297901,106.78484 69.6077534,123.982309 69.5907873,145.212172 C69.5907873,147.427066 67.7952608,149.222593 65.5803666,149.222593 C63.3654724,149.222593 61.569946,147.427066 61.569946,145.212172 C61.6115079,125.89488 73.5769411,108.609633 91.6426137,101.76924 C80.9032998,94.5300458 76.1530121,81.1249832 79.9378261,68.7389433 C83.72264,56.3529035 95.1543515,47.8925897 108.105753,47.8925897 C121.057154,47.8925897 132.488866,56.3529035 136.27368,68.7389433 C140.058494,81.1249832 135.308206,94.5300458 124.568892,101.76924 C130.734844,104.110869 136.334583,107.732557 140.999105,112.395648 C149.738802,121.082499 154.646247,132.900671 154.630585,145.223148 C154.593249,147.379342 152.857464,149.119976 150.701382,149.163326 L150.701382,149.163326 Z" id="形状"></path>
        </g>
    </g>
</svg>

<svg width="197" height="197" xmlns="http://www.w3.org/2000/svg"><g fill="#DCDCDC" fill-rule="nonzero"><path d="M108.156 55.925a21.43 21.43 0 00-.094 42.861h.094c11.835-.001 21.429-9.595 21.429-21.43 0-11.836-9.594-21.43-21.429-21.431z"/><path d="M98.436.13C44.071.13 0 44.2 0 98.567c0 54.365 44.07 98.436 98.436 98.436 54.366 0 98.437-44.07 98.437-98.436C196.873 44.2 152.803.13 98.436.13zM51.644 127.884a4.706 4.706 0 01-9.41 0 32.926 32.926 0 0117.646-29.18A23.525 23.525 0 0175.168 57.31a4.706 4.706 0 010 9.41c-7.796 0-14.116 6.32-14.116 14.117 0 7.796 6.32 14.117 14.116 14.117a4.706 4.706 0 110 9.412c-12.992 0-23.524 10.532-23.524 23.525v-.007zm99.057 21.28a4.01 4.01 0 01-4.08-3.952c-.018-21.227-17.237-38.424-38.465-38.414h-.096c-21.23-.013-38.452 17.184-38.47 38.414a4.01 4.01 0 01-8.02 0 46.56 46.56 0 0130.073-43.443 29.454 29.454 0 1132.926 0 46.68 46.68 0 0116.43 10.627 46.202 46.202 0 0113.632 32.827 4.01 4.01 0 01-3.93 3.94z"/></g></svg>
